X:319
%%etbk:tnset id:64,pos:5,rep:3x,ant:
%%etbk:tnset id:98,pos:1,rep:3x,ant:
%%etbk:wsite http://www.thesession.org/tunes/display/582
%%etbk:pldat 2016-06-23T19:08,2016-06-22T16:14,2016-06-22T15:16,2016-06-21T16:14,2016-06-18T15:54,2016-05-04T14:09,2016-03-11T15:40,2016-03-09T15:51,2016-03-08T15:07,2016-03-05T15:06,2016-02-23T16:59,2016-02-22T18:48,2015-11-02T18:22,2015-10-27T16:54,2015-10-25T14:52,2015-10-21T16:29,2015-10-07T15:43,2015-06-23T18:39,2015-03-13T17:55,2015-03-10T16:22,2015-03-05T18:02,2015-02-04T16:50,2014-11-06T18:09,2014-11-04T16:36,2014-11-02T14:09,2014-10-29T16:05,2014-08-21T19:11,2014-08-20T18:44,2014-08-18T18:39,2014-06-25T16:26,2014-05-28T16:50,2014-03-05T19:26,2014-03-02T16:36,2014-02-26T17:03,2014-02-16T13:40,2013-10-30T17:24,2013-10-29T17:26,2013-10-27T14:12,2013-10-23T18:16,2013-10-16T15:49,2013-10-11T18:12,2013-10-07T18:10
T: Haste To The Wedding
Z: Piano Box Version by Martin Fleischmann
H: Created 2013-02-19 /  Last Modified 2013-02-19
M: 6/8
L: 1/8
R: jig
K: Dmaj
|: "D"!1!A!2!F!1!A !1!A!4!gf | !2!ede !3!f!1!d!2!B | !1!A!2!F!4!A !4!AGF | "A"!3!G!2!G!3!G !1!EFG |
"D"!4!A!2!F!1!A !1!A!4!gf | !2!ede !3!f!1!d!2!B | !1!A!2!F!1!A "A"!3!faf | "D"!1!ded d3:|
|: "D"!4!a!2!fa afa | "G"!5!b!3!gb bgb | "D" !4!a!2!fa af!4!a | "A"!4!gfg !2!efg |
"D"!5!a3 !3!f3 | !2!ede !3!f!1!d!2!B | !1!A!2!F!1!A "A"!3!faf | "D"!1!ded d3:|


